src/assets/svg/signpole.svg

<svg xmlns="http://www.w3.org/2000/svg" viewBox="0 0 56.66 124.55">
    <path d="M.1 28.48L56.34 0a.21.21 0 01.32.18v20.09a.21.21 0 01-.1.18L.32 48.9a.21.21 0 01-.32-.18V28.66a.22.22 0 01.1-.18zm0 37.81l56.24-28.45a.21.21 0 01.32.18v20.06a.21.21 0 01-.1.18L.32 86.71a.21.21 0 01-.32-.17V66.47a.22.22 0 01.1-.18zm0 37.81l56.24-28.45a.21.21 0 01.32.18v20.06a.21.21 0 01-.1.18L.32 124.52a.21.21 0 01-.32-.17v-20.07a.22.22 0 01.1-.18z" fill="#062e4b" data-name="レイヤー 2"/>
</svg>

<svg xmlns="http://www.w3.org/2000/svg" viewBox="0 0 56.66 124.55">
  <path class="cls-1" d="M.1,28.48,56.34,0a.21.21,0,0,1,.32.18V20.27a.21.21,0,0,1-.1.18L.32,48.9A.21.21,0,0,1,0,48.72V28.66A.22.22,0,0,1,.1,28.48Z"/>
  <path class="cls-1" d="M.1,66.29,56.34,37.84a.21.21,0,0,1,.32.18V58.08a.21.21,0,0,1-.1.18L.32,86.71A.21.21,0,0,1,0,86.54V66.47A.22.22,0,0,1,.1,66.29Z"/>
  <path class="cls-1" d="M.1,104.1,56.34,75.65a.21.21,0,0,1,.32.18V95.89a.21.21,0,0,1-.1.18L.32,124.52a.21.21,0,0,1-.32-.17V104.28A.22.22,0,0,1,.1,104.1Z"/>
</svg>
